svg/file-icons/Patch.svg

<svg version="1.1" xmlns="http://www.w3.org/2000/svg" width="512px" height="512px"><style type="text/css">.st0{fill:#181816;}</style><path class="st0" d="M477.1991882,477.1991882l-0.0001831,0.0001831c-46.4007263,46.4007263-121.6312561,46.4006042-168.032135-0.0002441L34.800869,202.8331146c-46.400856-46.4008484-46.4009628-121.6314011-0.0002327-168.0321198l0.0001678-0.0001678c46.4007263-46.4007263,121.631279-46.4006233,168.032135,0.0002327l274.3660278,274.3660278C523.5997925,355.5679321,523.5999146,430.7984619,477.1991882,477.1991882z M221.9202271,128.3818054l-93.5394287,93.5394287l158.912384,158.912384l93.5394287-93.5394287L221.9202271,128.3818054z M86.8376694,180.3838501c-5.5687027,5.5686951-5.5687027,14.5973511,0,20.1660614c5.5687103,5.5686951,14.5973587,5.5686951,20.1660614,0c5.5687027-5.5687103,5.5687027-14.5973511,0-20.1660614C101.4350204,174.815155,92.4063721,174.8151398,86.8376694,180.3838501z M134.0694427,133.1520691c-5.5686951,5.5687103-5.5686951,14.5973511,0.0000153,20.1660614c5.5686951,5.5686951,14.5973511,5.5687103,20.1660461,0c5.5687103-5.5686951,5.5687103-14.5973511,0-20.1660614C148.6668091,127.5833664,139.6381531,127.5833664,134.0694427,133.1520691z M181.3012238,85.9202881c-5.5686951,5.5687027-5.5686951,14.5973587,0,20.1660614c5.5687103,5.5687027,14.5973663,5.5687027,20.1660614,0c5.5687103-5.5687027,5.5687103-14.5973511,0-20.1660538S186.8699341,80.3515854,181.3012238,85.9202881z M124.0505829,77.332695c-5.5687027,5.5687027-5.5686951,14.5973511,0.0000076,20.1660614c5.5687027,5.5687027,14.5973587,5.5687027,20.1660538,0c5.5687103-5.5687027,5.5687103-14.5973511,0-20.1660614C138.647934,71.7639923,129.6192932,71.7639923,124.0505829,77.332695z M78.2500763,123.1332092c-5.5687027,5.5686951-5.5687027,14.5973511,0,20.1660614c5.5687027,5.5686951,14.5973587,5.5686951,20.1660614,0c5.5687027-5.5687103,5.5686951-14.5973511-0.0000076-20.1660614C92.8474274,117.5645065,83.818779,117.5645065,78.2500763,123.1332092z M65.3686829,64.4513016c-5.5687065,5.5687027-5.5687027,14.5973511,0,20.1660538c5.5687027,5.5687103,14.5973587,5.5687103,20.1660614,0.0000076c5.5686951-5.5687027,5.5686951-14.5973511-0.0000076-20.1660614C79.9660339,58.8825989,70.9373779,58.8825989,65.3686829,64.4513016z M424.7448425,329.3638c5.5687256-5.5686951,5.5687256-14.5973511,0-20.1660461c-5.5686951-5.5687256-14.5973511-5.5687256-20.1660767-0.0000305c-5.5686951,5.5687256-5.5686951,14.5973816,0,20.1660767C410.1474915,334.9325256,419.1761475,334.9325256,424.7448425,329.3638z M377.513031,376.5956116c5.5686951-5.5686951,5.5686951-14.5973511,0-20.1660767c-5.5686951-5.5686951-14.5973511-5.5686951-20.1660767,0c-5.5686951,5.5686951-5.5686951,14.5973511,0,20.1660767C362.9156494,382.1643066,371.9443359,382.1643066,377.513031,376.5956116z M330.2812195,423.8273926c5.5686951-5.5686951,5.5686951-14.5973511,0-20.1660461c-5.5687256-5.5687256-14.5973816-5.5687256-20.1660767-0.0000305c-5.5687256,5.5687256-5.5687256,14.5973816,0,20.1660767C315.6838379,429.3961182,324.7124939,429.3961182,330.2812195,423.8273926z M387.5318909,432.4150085c5.5686951-5.5686951,5.5686951-14.5973511,0-20.1660461c-5.5687256-5.5687256-14.5973816-5.5687256-20.1660767-0.0000305c-5.5686951,5.5687256-5.5686951,14.5973816,0,20.1660767S381.9631653,437.9837341,387.5318909,432.4150085z M433.332428,386.614502c5.5687256-5.5687256,5.5687256-14.5973816,0-20.1660767c-5.5686951-5.5687256-14.5973511-5.5687256-20.1660767,0c-5.5686951,5.5686951-5.5686951,14.5973511,0,20.1660461C418.7350769,392.183197,427.7637329,392.183197,433.332428,386.614502z M446.2138367,445.2964172c5.5686951-5.5686951,5.5686951-14.5973511,0-20.1660461c-5.5687256-5.5687256-14.5973816-5.5687256-20.1660767-0.0000305c-5.5687256,5.5687256-5.5687256,14.5973816,0,20.1660767C431.6164551,450.8651428,440.6451111,450.8651428,446.2138367,445.2964172z M433.539032,246.4934998l43.6603394-43.6601868c46.4008484-46.4007263,46.4008484-121.6314011,0-168.0322571l-0.0001221-0.000248c-46.4008789-46.4008522-121.6315308-46.4008522-168.0323792-0.0001221l-43.6603394,43.6603165L433.539032,246.4934998z M78.4607697,265.5066528l-43.6600685,43.6599426c-46.4008522,46.4008484-46.4009781,121.6314087-0.0001221,168.0323792l0.000248,0.0001221c46.4007263,46.4008789,121.6313934,46.401001,168.0323792,0.0001221l43.6600647-43.6600647L78.4607697,265.5066528z"/></svg>

<svg xmlns="http://www.w3.org/2000/svg" width="512" height="512"><path d="M477.2 477.2h-.001c-46.4 46.4-121.631 46.4-168.032 0L34.8 202.832c-46.401-46.4-46.401-121.631 0-168.032 46.4-46.4 121.631-46.4 168.032 0l274.366 274.366c46.4 46.4 46.4 121.631 0 168.032zM221.92 128.381l-93.54 93.54 158.913 158.912 93.54-93.54L221.92 128.382zM86.838 180.384c-5.569 5.569-5.569 14.597 0 20.166 5.568 5.569 14.597 5.569 20.166 0 5.568-5.569 5.568-14.597 0-20.166-5.569-5.569-14.598-5.569-20.166 0zm47.231-47.232c-5.568 5.569-5.568 14.597 0 20.166 5.57 5.569 14.598 5.569 20.167 0 5.568-5.569 5.568-14.597 0-20.166-5.57-5.569-14.598-5.569-20.167 0zm47.232-47.232c-5.568 5.569-5.568 14.598 0 20.166 5.569 5.57 14.598 5.57 20.166 0 5.569-5.568 5.569-14.597 0-20.166s-14.597-5.568-20.166 0zm-57.25-8.587c-5.57 5.568-5.57 14.597 0 20.166 5.568 5.568 14.597 5.568 20.166 0 5.568-5.569 5.568-14.598 0-20.166-5.57-5.569-14.598-5.569-20.166 0zm-45.8 45.8c-5.57 5.569-5.57 14.598 0 20.166 5.568 5.569 14.596 5.569 20.165 0 5.569-5.568 5.569-14.597 0-20.166-5.569-5.568-14.597-5.568-20.166 0zM65.368 64.451c-5.569 5.569-5.569 14.598 0 20.166 5.568 5.57 14.597 5.57 20.166 0 5.568-5.568 5.568-14.597 0-20.166-5.569-5.568-14.598-5.568-20.166 0zm359.376 264.913c5.569-5.569 5.569-14.598 0-20.166-5.569-5.569-14.598-5.569-20.166 0-5.569 5.568-5.569 14.597 0 20.166 5.568 5.569 14.597 5.569 20.166 0zm-47.232 47.232c5.569-5.57 5.569-14.598 0-20.166-5.569-5.57-14.597-5.57-20.166 0-5.569 5.568-5.569 14.597 0 20.166 5.569 5.568 14.597 5.568 20.166 0zm-47.232 47.231c5.569-5.568 5.569-14.597 0-20.166-5.569-5.568-14.597-5.568-20.166 0-5.569 5.569-5.569 14.598 0 20.166 5.569 5.57 14.597 5.57 20.166 0zm57.25 8.588c5.57-5.569 5.57-14.597 0-20.166-5.568-5.569-14.596-5.569-20.165 0-5.569 5.569-5.569 14.597 0 20.166s14.597 5.569 20.166 0zm45.801-45.8c5.57-5.57 5.57-14.598 0-20.167-5.568-5.568-14.597-5.568-20.166 0-5.568 5.57-5.568 14.598 0 20.166 5.57 5.57 14.598 5.57 20.166 0zm12.882 58.681c5.569-5.568 5.569-14.597 0-20.166-5.569-5.568-14.598-5.568-20.166 0-5.569 5.57-5.569 14.598 0 20.166 5.568 5.57 14.597 5.57 20.166 0zm-12.675-198.803 43.66-43.66c46.401-46.4 46.401-121.631 0-168.032-46.4-46.401-121.631-46.401-168.032 0l-43.66 43.66 168.032 168.032zM78.461 265.507l-43.66 43.66c-46.401 46.4-46.401 121.631 0 168.032 46.4 46.401 121.631 46.401 168.032 0l43.66-43.66L78.461 265.507z"/></svg>
